X: 24931
T: Maid Behind The Bar, The
R: reel
M: 4/4
K: Dmajor
dB|:A2AB AFED|FAAF ABde|fBBA Bcde|fBBA BddA|
FAAB AFED|FAAF ABde|fBBA BcdB|AFEF D4:|
|:fgag fdde|fdad fdd2|efga beef|gfga beeg|
[1 faa2 baaf|defd e2de|fBBA BcdB|AFEF D4:|
[2 faa2 baaf|dff2 dfed|B2BA BddB|AFEF D4||

